X: 760
T: Out With the Boys. 1st Setting.
C:J. O'Neill.
B:O'Neill's Music of Ireland
N:O'Neill's - 760
Z:Transcribed by Stephen Foy (shf@access.digex.net)
Z:abc 1.6
Z:Fermata above first double bar-line.
Z:D.C. under last bar-line.
M:6/8
R:Jig
K:G
B|G3 g2 e|dBG AFD|G3 g2 e|dBG A2 B|\
G3 g2 e|dBG GAB|cde dcB|cAF G2||
||B|eBe gbg|eBe gbg|eBe g2 a|bag agf|\
eBe gbg|eBe g2 a|bag agf|e3 d2|]


